!! 00026] TT[00
!! Eigene Aufnahme
!!!OTL: Fanshen wugeng
!!!ARE: Asia, China,ÿLiaoning
!! Ethnic Group: Han
!! III, 236
!!!SCT: C0291
!!!YEM: Copyright 1995, estate of Helmut Schaffrath.
**kern
*ICvox
*Ivox
!! Mixed meters:  4/4; 2/4
*M2/4
*k[f#]
*G:
{8b
8b
8dd
8ee
8b
4b
16dd
16b
=1
8.a
16b
8dd
8ee
8b
8a
8g
8e
=2
8a
4a
8g
2a}
=3
{8b
8b
8dd
8ee
8b
4b
16dd
16b
=4
8.a
16b
8dd
8ee
8b
8a
8g
8e
=5
8a
4a
8g
8a
8d
4e}
=6
{8.b
16dd
8b
8a
8a
4g
8a
=7
2g}
=8
{8b
8e
4b
=9
8a
8g
4e}
=10
{8b
8b
8dd
16b
16b
=11
8a
8g
8e
8ee}
=12
{8g
8g
16e
16g
16e
16g
=13
8a
4a
8b
=14
8dd
4dd
8ee
=15
16b
16dd
16b
16a
8g
8e}
=16
{8b
8b
16a
16g
8e
=17
8d
8d
16c
16d
8e
=18
2d}
==
!!!AGN: Xiaodiao, Yueyawugeng diao. Geming lishi minge
!! Melodie existiert im gesamten Nordosten. Der Text ist aus den
!!    40er Jahren. Mit anderem Text singt dies auch eine taiwanes.Saengerin.
!!    Die Saengerin Lei Huilan ist Angehoerige der Zhuang Minderheit und
!!    studiert an der Guangzhouer Musikhochschule.
!!    Aufgenommen am 5.5.87
!!    Vereinzelt Verzierungen. Die letzten beiden Takte der 5. Strophe:
!!    -5_0_456_  5___ //
!!!ONB: ESAC (Essen Associative Code) Database: CHINA
!!!AMT: irregular
!!!AIN: vox
!!!EED: Helmut Schaffrath
!!!EEV: 1.0
*-
